X:1
T:Title
%%score { ( 1 3 ) | ( 2 4 ) }
L:1/8
M:6/8
K:C
V:1 treble nm="Grand Piano"
V:3 treble 
V:2 bass 
V:4 bass 
V:1
 z3 z2[Q:1/4=90] c | c2 A F2 C | E2 D D2 [D_B] | _B2 G E2 C |[M:5/8] c-c- c3 |[M:1/8] c | %6
[M:3/4] c2 A F2 C | E2 D D2 [D_B] | z2 z .E3[K:bass] |[M:5/8][K:treble] F-F- F3 |[M:1/8] F | %11
[M:3/4] E2 [EG] [Ec]2 [Fd] | c2 B B2 c | B2 F B2 A |[M:5/8] [EG]-[EG]- [EG]3 |[M:1/8] [DF] | %16
[M:3/4] [CE]2 [EG] [Ec]2 [Ge] | e2 dd z c | c2 B e2 d |[M:5/8] [Ec]-[Ec]- [Ec]3 |[M:3/16] [Gc]3/2 | %21
[M:3/4] c2 A F2 C | [CE]3 [_B,D]2 [D_B] | [C_B]2 [_B,CG] [CE]2 C |[M:5/8] c-c- c3 |[M:1/8] c | %26
[M:3/4] c2 A F2 C | [CE]2 [_B,D][D_B] z [Fd] | [Ed]2 [Ec] [E_B]2 E |[M:5/8] F-F- F3 |] %30
V:2
 z3 z2 [F,A,F] | [F,A,F]2 [F,CF] [F,A,C]2 [F,A,] | [_B,,F,C]2 [B,,F,_B,] [B,,F,B,]2 [B,,F,] | %3
 [C,E,C]2 [C,E,C] [C,_B,C]2 [E,B,] |[M:5/8] [F,A,F]-[F,A,F]- [F,A,F]3 |[M:1/8] [F,A,F] | %6
[M:3/4] [F,A,F]2 [F,CF] [F,A,C]2 [A,,F,] | [_B,,F,C]2 [B,,F,_B,] [B,,F,B,]2 [B,,F,] | %8
 [C,E,C]2 [C,E,C] [_B,C]2 [G,B,] |[M:5/8] [F,A,C]-[F,A,C]- [F,A,C]3 |[M:1/8] [F,A,C] | %11
[M:3/4] [C,G,C]2 [C,C] [C,G,]2 [C,G,] | [G,E]2 [G,D] [G,D]2 [G,E] | [G,D]2 [G,B,D] [G,DF]2 [G,F] | %14
[M:5/8][K:bass] [C,G,]-[C,G,]- [C,G,]3 |[M:1/8] [C,G,] |[M:3/4] [C,G,]2 [C,C] [C,G,]2 [C,C] | %17
 [G,B,G]2 [G,B,F][G,B,F] z [G,CE] | [G,CE]2 [G,D] [G,CG]2 [G,B,F] | %19
[M:5/8][K:bass] [C,C]-[C,C]- [C,C]3 |[M:3/16] [E,_B,]3/2 | %21
[M:3/4] [F,A,F]2 [F,CF] [F,A,C]2 [A,,F,] | [_B,,F,]3 [B,,F,]2 [B,,F,] | [C,E,]2 C,C, E,_B, | %24
[M:5/8] [F,A,F]-[F,A,F]- [F,A,F]3 |[M:1/8] [F,A,F] |[M:3/4] [F,A,F]2 [F,CF] [F,A,C]2 [A,,F,] | %27
 [_B,,F,]2 [B,,F,][B,,F,] z [B,,_B,] | [C,_B,]2 [C,B,] [C,G,]2 [C,B,C] | %29
[M:5/8] [F,A,C]-[F,A,C]- [F,A,C]3 |] %30
V:3
 x6 | x6 | x6 | x6 |[M:5/8] x5 |[M:1/8] x |[M:3/4] x6 | x6 | _B2 .G2[K:bass] E,C | %9
[M:5/8][K:treble] x5 |[M:1/8] x |[M:3/4] x6 | x6 | x6 |[M:5/8] x5 |[M:1/8] x |[M:3/4] x6 | x6 | %18
 x6 |[M:5/8] x5 |[M:3/16] x3/2 |[M:3/4] x6 | x6 | x6 |[M:5/8] x5 |[M:1/8] x |[M:3/4] x6 | x6 | x6 | %29
[M:5/8] x5 |] %30
V:4
 x6 | x6 | x6 | x6 |[M:5/8] x5 |[M:1/8] x |[M:3/4] x6 | x6 | z2 z C, z2 |[M:5/8] x5 |[M:1/8] x | %11
[M:3/4] x6 | x6 | x6 |[M:5/8][K:bass] x5 |[M:1/8] x |[M:3/4] x6 | x6 | x6 |[M:5/8][K:bass] x5 | %20
[M:3/16] x3/2 |[M:3/4] x6 | x6 | x6 |[M:5/8] x5 |[M:1/8] x |[M:3/4] x6 | x6 | x6 |[M:5/8] x5 |] %30

